!!!!SEGMENT: pl-sa--573-a-ix-53--005_anonim--wariacje.krn
!!!cenid: 18xx:606
!!!COM: Anonim
!!!COM-rismid: pe30004985
!!!CDT:
!!!CNT:
!!!OTL: Wariacje
!!!PDT:
!!!AGN: Secular; Variations
!!!SMS-siglum: PL-SA
!!!SMS-shelfmark: 573/A IX 53
!!!SMS-shelfwork: 005 W
!!!SMS-variant:
!!!SMS-altvar:
!!!NIFC-rismid: 1001077505
!!!system-decoration: {(s1,s2)}
!!!AIN: 1 empty 1 piano
!!!key:
**kern	**kern
*part2	*part1
*staff2	*staff1
*Iempty	*Ipiano
*	*I"Piano
*clefF4	*clefG2
*k[]	*k[]
*C:	*C:
*M2/4	*M2/4
*>[A,B,A,B,C,D,E,C,D,E,F,G,H,F,G,H,I,J,K,I,J,K,L,M,N,O,P,M,N,O,P]	*>[A,B,A,B,C,D,E,C,D,E,F,G,H,F,G,H,I,J,K,I,J,K,L,M,N,O,P,M,N,O,P]
=1	=1
*>A	*>A
!	!LO:TX:a:Bi:t=Thema
8EL 8C\	8ggL 8ee\
8G\J	8ggJ 8ee\
*rep	*
8EL 8C\	8.eeL 8.cc\
8G\J	.
.	16ggJk 16ee\
*Xrep	*
=2	=2
8FL 8D\	8ffL 8dd\
8G\J	8ffJ 8dd\
*rep	*
8FL 8D\	8.ddL 8.b\
8G\J	.
.	16ffJk 16dd\
*Xrep	*
=3	=3
8C\L	8eeL 8cc\
8E\	8eeJ 8cc\
8F\	8ffL 8dd\
8F#X\J	8eeJ 8cc\
=4	=4
8G\L	8ddL 8b\
8D\J	8ggJ 8b\
16GG\LL	4gg 4b\
16Fn\	.
16E\	.
16D\JJ	.
!LO:TX:a:t=[segno]:problem=znak segno na kresce taktowej	!LO:TX:a:t=[segno]:problem=znak segno na kresce taktowej
=5||	=5||
*>B	*>B
8EL 8C\	8ggL 8ee\
8G\J	8ggJ 8ee\
*rep	*
8EL 8C\	8.eeL 8.cc\
8G\J	.
.	16ggJk 16ee\
*Xrep	*
=6	=6
8FL 8D\	8ffL 8dd\
8G\J	8ffJ 8dd\
*rep	*
8FL 8D\	8.ddL 8.b\
8G\J	.
.	16ffJk 16dd\
*Xrep	*
=7	=7
8C\L	8eeL 8g/
8E\J	8ccJ 8e/
!LO:TX:t=P:problem=mixed beam	!
8G\L	8ddL 8f/
8GG/J	8bJ 8d/
=8	=8
8c\L	8ccL 8e/
8G\J	8ccJ 8e/
8C/	4cc 4e/
8r	.
=9:|!|:;;	=9:|!|:;;
*>C	*>C
8G\L	8ddL 8b\
8B\J	8ddJ 8b\
!LO:TX:t=P:problem=mixed beam	!
8c\L	8eeL 8cc\
8C/J	8eeJ 8cc\
=10	=10
8d\L	8ffL 8dd\
8B\	8ffJ 8dd\
8G\	4dd 4b\
8B\J	.
!!LO:LB:g=original
=11	=11
8c\L	8eeL 8cc\
8A\J	8eeJ 8cc\
!LO:TX:t=P:problem=mixed beam	!
8d\L	8ff#XL 8cc 8a\
8D/J	8ff#J 8cc 8a\
=12	=12
8G\L	8ggL 8b\
8D\J	8ggJ 8b\
16GG\LL	4gg 4b\
16F\	.
16E\	.
16D\JJ	.
!LO:TX:a:t=[segno]:problem=znak segno na kresce taktowej	!LO:TX:a:t=[segno]:problem=znak segno na kresce taktowej
=13||	=13||
*>D	*>D
*M2/4	*M2/4
!	!LO:TX:a:Bi:t=Var&colon; 1.
8r	16gg\LL
.	16aa\
8C\L	16gg\
.	16ff\JJ
8E\	16ee\LL
.	16cc\
8C\J	16ee\
.	16gg\JJ
=14	=14
8G\L	16ff\LL
.	16gg\
8D\J	16ff\
.	16ee\JJ
8BB/L	16dd\LL
.	16b\
8GG/J	16dd\
.	16ff\JJ
=15	=15
8C\L	16ee\LL
.	16cc\
8E\J	16ee\
.	16cc\JJ
8F\L	16ff\LL
.	16dd\
8F#X\J	16ee\
.	16cc\JJ
=16	=16
16r	16dd\LL
16G\LL	16b\
16D\	16g\
16BB\JJ	16dd\JJ
4GG/	16gg\LL
.	16ff\
.	16ee\
.	16dd\JJ
!LO:TX:a:t=[segno]:problem=znak segno na kresce taktowej	!LO:TX:a:t=[segno]:problem=znak segno na kresce taktowej
=17||	=17||
*>E	*>E
8r	16gg\LL
.	16aa\
8C\L	16gg\
.	16ff\JJ
8E\	16ee\LL
.	16cc\
8C\J	16ee\
.	16gg\JJ
=18	=18
8G\L	16ff\LL
.	16gg\
8D\	16ff\
.	16ee\JJ
8BB\	16dd\LL
.	16b\
8GG\J	16dd\
.	16ff\JJ
=19	=19
!	!LO:N:vis=8
8C\L	16ee/LL
!	!LO:N:vis=8
.	16g/JJ
!	!LO:N:vis=8
8E\J	16cc/LL
!	!LO:N:vis=8
.	16e/JJ
!!LO:LB:g=original
!LO:TX:t=P:problem=mixed beam	!
8G\L	16dd/LL
.	16f/
8GG/J	16b/
.	16d/JJ
=20	=20
8c\L	16cc/LL
.	16g/
8G\J	16e/
.	16g/JJ
4C/	4c/
=21:|!|:;;	=21:|!|:;;
*>F	*>F
8G\L	16dd\LL
.	16cc\
8B\J	16dd\
.	16b\JJ
!LO:TX:a:t=P:problem=mixed beam	!
8c\L	16ee\LL
.	16dd\
8C\J	16ee\
.	16cc\JJ
=22	=22
!LO:TX:a:t=P:problem=w źródle nad nutami litery d-h-g-h	!
!LO:TX:a:t=d	!
8c\L	16ff\LL
.	16ee\
!LO:TX:a:t=h	!
8A\J	16ff\
.	16dd\JJ
!LO:TX:a:t=g	!
8d\L	16g\LL
.	16b\
!LO:TX:a:t=h	!
8D\J	16dd\
.	16ff\JJ
=23	=23
8c\L	16ee\LL
.	16dd\
8A\J	16ee\
.	16cc\JJ
!LO:TX:t=P:problem=mixed beam	!
8d\L	16ff#X\LL
.	16ee\
8D/J	16ff#\
.	16dd\JJ
=24	=24
16G\LL	8ggL 8b\
16D\	.
16BB\	8ggJ 8b\
16D\JJ	.
4GG/	16gg\LL
.	16ff\
.	16ee\
.	16dd\JJ
!LO:TX:a:t=[segno]:problem=znak segno na kresce taktowej	!LO:TX:a:t=[segno]:problem=znak segno na kresce taktowej
!!LO:LB:g=original
=25||	=25||
*>G	*>G
!	!LO:TX:a:Bi:t=Var 2.:rj
16C\LL	8eeL 8g/
16D\	.
16E\	8eeJ 8g/
16F\JJ	.
16G\LL	8.ccL 8.e/
16A\	.
16B\	.
16c\JJ	16eeJk 16g/
=26	=26
16GG\LL	8ddL 8f/
16AA\	.
16BB\	8ddJ 8f/
16C\JJ	.
16D\LL	8.bL 8.d/
16E\	.
16F\	.
16G\JJ	16ddJk 16f/
=27	=27
!LO:TX:t=P:problem=mixed beam	!
16C/LL	8ccL 8e/
16c\	.
16B\	8cc 8e/
16c\JJ	.
16G\LL	8dd 8f/
16c\	.
16E\	8ccJ 8e/
16G\JJ	.
=28	=28
!LO:TX:t=P:problem=mixed beam	!
16GG/LL	8bL 8d/
16G\	.
16F#X\	8bJ 8d/
16G\JJ	.
16GG\LL	4b 4d/
16Fn\	.
16E\	.
16D\JJ	.
!LO:TX:a:t=[segno]:problem=znak segno na kresce taktowej	!LO:TX:a:t=[segno]:problem=znak segno na kresce taktowej
=29||	=29||
*>H	*>H
16C\LL	8eeL 8g/
16D\	.
16E\	8eeJ 8g/
16F\JJ	.
16G\LL	8.ccL 8.e/
16A\	.
16B\	.
16c\JJ	16eeJk 16g/
=30	=30
16GG\LL	8ddL 8f/
16AA\	.
16BB\	8ddJ 8f/
16C\JJ	.
16D\LL	8.bL 8.d/
16E\	.
16F\	.
16G\JJ	16ddJk 16f/
=31	=31
16C\LL	8ggL 8ee\
16c\	.
16G\	8eeJ 8cc\
16E\JJ	.
!LO:TX:t=P:problem=mixed beam	!
16GG/LL	8ffL 8dd\
16G\	.
16F\	8ddJ 8b\
16D\JJ	.
=32	=32
32C\LLL	8ccL 8e/
32D\	.
32E\	.
32F\JJJ	.
32G\LLL	8ccJ 8e/
32A\	.
32B\	.
32c\JJJ	.
4C/	8cc 8e/
.	8r
!!LO:PB:g=original
=33:|!|:;;	=33:|!|:;;
*>I	*>I
16G\LL	8.ddL 8.b\
16A\	.
16B\	.
16G\JJ	16ddJk 16b\
16c\LL	8.eeL 8.cc\
16G\	.
16E\	.
16C\JJ	16eeJk 16cc\
=34	=34
16d\LL	8ffL 8dd\
16c\	.
16B\	8ffJ 8dd\
16A\JJ	.
16G\LL	4dd 4b\
16A\	.
16B\	.
16G\JJ	.
=35	=35
16c\LL	8eeL 8cc\
16B\	.
16c\	8ffJ 8cc\
16A\JJ	.
!LO:TX:t=P:problem=mixed beam	!
16d\LL	8ff#XL 8cc 8a\
16c#X\	.
16d\	8ff#J 8cc 8a\
16D/JJ	.
=36	=36
16G\LL	8ggL 8b\
16D\	.
16BB\	8ggJ 8b\
16D\JJ	.
16GG\LL	4gg 4b\
16F\	.
16E\	.
16D\JJ	.
!LO:TX:a:t=[segno]:problem=znak segno na kresce taktowej	!LO:TX:a:t=[segno]:problem=znak segno na kresce taktowej
=37||	=37||
*>J	*>J
*clefG2	*
!	!LO:TX:a:t=P:problem=w źródle przed Var. 3 klamra systemowa
!	!LO:TX:a:Bi:t=Var. 3:rj
!LO:TUP:b:problem=klamra łukowa	!
24c/LL	8ggL 8ee\
24e/	.
24g/JJ	.
*rep	*
!LO:TUP:b:problem=klamra łukowa	!
24c/LL	8ggJ 8ee\
24e/	.
24g/JJ	.
*Xrep	*
*rep	*
!LO:TUP:b:problem=klamra łukowa	!
24c/LL	8.eeL 8.cc\
24e/	.
24g/JJ	.
*Xrep	*
*rep	*
!LO:TUP:b:problem=klamra łukowa	!
24c/LL	.
24e/	.
.	16ggJk 16ee\
24g/JJ	.
*Xrep	*
=38	=38
!LO:TUP:b:problem=klamra łukowa	!
24d/LL	8ffL 8dd\
24f/	.
24g/JJ	.
*rep	*
!LO:TUP:b:problem=klamra łukowa	!
24d/LL	8ffJ 8dd\
24f/	.
24g/JJ	.
*Xrep	*
*rep	*
!LO:TUP:b:problem=klamra łukowa	!
24d/LL	8.ddL 8.b\
24f/	.
24g/JJ	.
*Xrep	*
*rep	*
!LO:TUP:b:problem=klamra łukowa	!
24d/LL	.
24f/	.
.	16ffJk 16dd\
24g/JJ	.
*Xrep	*
=39	=39
!LO:TUP:b:problem=klamra łukowa	!
24c/LL	8eeL 8cc\
24e/	.
24g/JJ	.
*rep	*
!LO:TUP:b:problem=klamra łukowa	!
24c/LL	8ee 8cc\
24e/	.
24g/JJ	.
*Xrep	*
!LO:TUP:b:problem=klamra łukowa	!
24B/LL	8ff 8dd\
24d/	.
24g/JJ	.
!LO:TUP:b:problem=klamra łukowa	!
24c/LL	8eeJ 8cc\
24e/	.
24g/JJ	.
!!LO:LB:g=original
=40	=40
*clefF4	*
!LO:TUP:a:problem=klamra łukowa	!
24G\LL	8ddL 8b\
24B\	.
*Xtuplet	*
24d\JJ	.
24g\LL	8ggJ 8b\
24d\	.
24B\JJ	.
!LO:TX:a:t=P:problem=w źródle w połowie taktu skreślona błędna kreska taktowa; poprawka skryptora	!LO:TX:a:t=P:problem=w źródle w połowie taktu skreślona błędna kreska taktowa; poprawka skryptora
!	!LO:TUP:a:problem=klamra łukowa
4G\	24gg\LL
.	24aa\
.	24gg\JJ
!	!LO:TUP:a:problem=klamra łukowa
.	24ff\LL
.	24ee\
.	24dd\JJ
*tuplet	*
!LO:TX:a:t=[segno]:problem=znak segno na kresce taktowej	!LO:TX:a:t=[segno]:problem=znak segno na kresce taktowej
=41||	=41||
*>K	*>K
*clefG2	*
!LO:TUP:b:problem=klamra łukowa	!
24c/LL	8ggL 8ee\
24e/	.
24g/JJ	.
*rep	*
!LO:TUP:b:problem=klamra łukowa	!
24c/LL	8ggJ 8ee\
24e/	.
24g/JJ	.
*Xrep	*
*rep	*
!LO:TUP:b:problem=klamra łukowa	!
24c/LL	8.eeL 8.cc\
24e/	.
24g/JJ	.
*Xrep	*
*rep	*
!LO:TUP:b:problem=klamra łukowa	!
24c/LL	.
24e/	.
.	16ggJk 16ee\
24g/JJ	.
*Xrep	*
=42	=42
!LO:TUP:b:problem=klamra łukowa	!
24d/LL	8ffL 8dd\
24f/	.
24g/JJ	.
*rep	*
!LO:TUP:b:problem=klamra łukowa	!
24d/LL	8ffJ 8dd\
24f/	.
24g/JJ	.
*Xrep	*
!LO:TUP:b:problem=klamra łukowa	!
24B/LL	8.ddL 8.b\
24d/	.
24g/JJ	.
*rep	*
!LO:TUP:b:problem=klamra łukowa	!
24B/LL	.
24d/	.
.	16ffJk 16dd\
24g/JJ	.
*Xrep	*
*clefF4	*
=43	=43
*Xtuplet	*
24C\LL	8eeL 8g/
24E\	.
24G\JJ	.
24c\LL	8ccJ 8e/
24G\	.
24E\JJ	.
24GG/LL	8ddL 8f/
24BB/	.
24D/JJ	.
24G\LL	8bJ 8d/
24D\	.
24BB\JJ	.
*tuplet	*
=44	=44
!LO:TUP:a:problem=klamra łukowa	!
24C\LL	8ccL 8e/
24c\	.
24B\JJ	.
*Xtuplet	*
24c\LL	8ccJ 8e/
24G\	.
24E\JJ	.
4C/	4cc 4e/
=45:|!|:;	=45:|!|:;
*>L	*>L
24G\LL	8ddL 8b\
24B\	.
24d\JJ	.
*rep	*
24G\LL	8dd 8b\
24B\	.
24d\JJ	.
*Xrep	*
24G\LL	8ee 8cc\
24c\	.
24e\JJ	.
*rep	*
24G\LL	8eeJ 8cc\
24c\	.
24e\JJ	.
*Xrep	*
=46	=46
24G\LL	8ffL 8dd\
24d\	.
24f\JJ	.
*rep	*
24G\LL	8ffJ 8dd\
24d\	.
24f\JJ	.
*Xrep	*
*rep	*
24G\LL	4dd 4b\
24d\	.
24f\JJ	.
*Xrep	*
*rep	*
24G\LL	.
24d\	.
24f\JJ	.
*Xrep	*
*tuplet	*
=47	=47
!LO:TUP:a:problem=klamra łukowa	!
24G\LL	8eeL 8cc\
24c\	.
24e\JJ	.
*rep	*
!LO:TUP:a:problem=klamra łukowa	!
24G\LL	8eeJ 8cc\
24c\	.
24e\JJ	.
*Xrep	*
!!LO:LB:g=original
!LO:TUP:a:problem=klamra łukowa	!
24G\LL	8ffL 8dd\
24d\	.
24f\JJ	.
!LO:TUP:a:problem=klamra łukowa	!
24G\LL	8eeJ 8cc\
24c\	.
24e\JJ	.
=48	=48
!LO:TUP:a:problem=klamra łukowa	!
24G\LL	8ddL 8b\
24B\	.
24d\JJ	.
!LO:TUP:a:problem=klamra łukowa	!
24g\LL	8ggJ 8b\
24d\	.
24B\JJ	.
!	!LO:TUP:a:problem=klamra łukowa
4G\	24gg\LL
.	24aa\
.	24gg\JJ
!	!LO:TUP:a:problem=klamra łukowa
.	24ff\LL
.	24ee\
.	24dd\JJ
!LO:TX:a:t=[segno]:problem=znak segno na kresce taktowej	!LO:TX:a:t=[segno]:problem=znak segno na kresce taktowej
!	!LO:TX:b:Bi:t=Dal Segno
=49||	=49||
*>M	*>M
*M6/8	*M6/8
!	!LO:TX:a:t=P:problem=w źródle przed Var. 4 klamra systemowa
!	!LO:TX:a:Bi:t=Var. 4
!LO:TX:b:t=P:problem=W źródle przed metrum 6/8 skreślone metrum 2/4	!LO:TX:b:t=P:problem=W źródle przed metrum 6/8 skreślone metrum 2/4
8C\L	8ggL 8ee\
8E\	8gg 8ee\
8G\J	8ggJ 8ee\
*rep	*
8C\L	4ee 4cc\
8E\	.
8G\J	8gg 8ee\
*Xrep	*
=50	=50
8D\L	8ffL 8dd\
8F\	8ff 8dd\
8G\J	8ffJ 8dd\
*rep	*
8D\L	4dd 4b\
8F\	.
8G\J	8ff 8dd\
*Xrep	*
=51	=51
8C\L	8eeL 8cc\
8E\	8ee 8cc\
8G\J	8eeJ 8cc\
8E\L	8eeL 8cc\
8F\	8ff 8dd\
8F#X\J	8eeJ 8cc\
!!LO:LB:g=original
=52	=52
8G\L	8ddL 8b\
8D\	8gg 8b\
8BB\J	8ggJ 8b\
16G\LL	4gg 4b\
16A\	.
16G\	.
16F\	.
16E\	8r
16D\JJ	.
!LO:TX:a:t=[segno]:problem=znak segno na kresce taktowej	!LO:TX:a:t=[segno]:problem=znak segno na kresce taktowej
=53||	=53||
*>N	*>N
!LO:TX:t=P:problem=mixed beam	!
16CC/LL	8ggL 8ee\
16C\JJ	.
*rep	*
!LO:TX:t=P:problem=mixed beam	!
16CC/LL	8gg 8ee\
16C\JJ	.
*Xrep	*
*rep	*
!LO:TX:t=P:problem=mixed beam	!
16CC/LL	8ggJ 8ee\
16C\JJ	.
*Xrep	*
*rep	*
!LO:TX:t=P:problem=mixed beam	!
16CC/LL	4ee 4cc\
16C\JJ	.
*Xrep	*
*rep	*
!LO:TX:t=P:problem=mixed beam	!
16CC/LL	.
16C\JJ	.
*Xrep	*
*rep	*
!LO:TX:t=P:problem=mixed beam	!
16CC/LL	8gg 8ee\
16C\JJ	.
*Xrep	*
=54	=54
!LO:TX:t=P:problem=mixed beam	!
16GG/LL	8ffL 8dd\
16G\JJ	.
*rep	*
!LO:TX:t=P:problem=mixed beam	!
16GG/LL	8ff 8dd\
16G\JJ	.
*Xrep	*
*rep	*
!LO:TX:t=P:problem=mixed beam	!
16GG/LL	8ffJ 8dd\
16G\JJ	.
*Xrep	*
*rep	*
!LO:TX:t=P:problem=mixed beam	!
16GG/LL	4dd 4b\
16G\JJ	.
*Xrep	*
*rep	*
!LO:TX:t=P:problem=mixed beam	!
16GG/LL	.
16G\JJ	.
*Xrep	*
*rep	*
!LO:TX:t=P:problem=mixed beam	!
16GG/LL	8ff 8dd\
16G\JJ	.
*Xrep	*
=55	=55
16C\LL	4ee 4g/
16D\	.
16E\	.
16D\	.
16E\	8cc 8e/
16C\JJ	.
!LO:TX:t=P:problem=mixed beam	!
16F\LL	4dd 4f/
16D\	.
16E\	.
16F\	.
16G\	8b 8d/
16GG/JJ	.
=56	=56
16C/LL	8ccL 8e/
16BB/	.
16C/	8cc 8e/
16GG/	.
16EE/	8ccJ 8e/
16GG/JJ	.
4CC/	4cc 4e/
8r	8r
!LO:TX:a:t=P:problem=w źródle ozdobna podwójna kreska taktowa; nie jest to jednak segno	!LO:TX:a:t=P:problem=w źródle ozdobna podwójna kreska taktowa; nie jest to jednak segno
!!LO:PB:g=original
=57||	=57||
*>O	*>O
!LO:TX:t=P:problem=mixed beam	!
16GG/LL	8ddL 8b\
16G\JJ	.
*rep	*
!LO:TX:t=P:problem=mixed beam	!
16GG/LL	8dd 8b\
16G\JJ	.
*Xrep	*
*rep	*
!LO:TX:t=P:problem=mixed beam	!
16GG/LL	8ddJ 8b\
16G\JJ	.
*Xrep	*
*rep	*
!LO:TX:t=P:problem=mixed beam	!
16GG/LL	4dd 4b\
16G\JJ	.
*Xrep	*
*rep	*
!LO:TX:t=P:problem=mixed beam	!
16GG/LL	.
16G\JJ	.
*Xrep	*
*rep	*
!LO:TX:t=P:problem=mixed beam	!
16GG/LL	8ff 8dd\
16G\JJ	.
*Xrep	*
=58	=58
!LO:TX:t=P:problem=mixed beam	!
16C/LL	8eeL 8cc\
16c\JJ	.
*rep	*
!LO:TX:t=P:problem=mixed beam	!
16C/LL	8ee 8cc\
16c\JJ	.
*Xrep	*
*rep	*
!LO:TX:t=P:problem=mixed beam	!
16C/LL	8eeJ 8cc\
16c\JJ	.
*Xrep	*
*rep	*
!LO:TX:t=P:problem=mixed beam	!
16C/LL	4ee 4cc\
16c\JJ	.
*Xrep	*
*rep	*
!LO:TX:t=P:problem=mixed beam	!
16C/LL	.
16c\JJ	.
*Xrep	*
*rep	*
!LO:TX:t=P:problem=mixed beam	!
16C/LL	8gg 8ee\
16c\JJ	.
*Xrep	*
=59	=59
!LO:TX:t=P:problem=mixed beam	!
16D/LL	8ff#XL 8dd\
16d\JJ	.
*rep	*
!LO:TX:t=P:problem=mixed beam	!
16D/LL	8ff# 8dd\
16d\JJ	.
*Xrep	*
*rep	*
!LO:TX:t=P:problem=mixed beam	!
16D/LL	8ff#J 8dd\
16d\JJ	.
*Xrep	*
*rep	*
!LO:TX:t=P:problem=mixed beam	!
16D/LL	4ccc 4ff#\
16d\JJ	.
*Xrep	*
*rep	*
!LO:TX:t=P:problem=mixed beam	!
16D/LL	.
16d\JJ	.
*Xrep	*
*rep	*
!LO:TX:t=P:problem=mixed beam	!
16D/LL	8ff# 8dd\
16d\JJ	.
*Xrep	*
=60	=60
16G\LL	4.aa 4.cc\
16F#X\	.
16G\	.
16D\	.
16BB\	.
16D\JJ	.
4GG/	8ggL 8b\
.	8gg 8b\
8r	8ggJ 8b\
!LO:TX:a:t=[segno]:problem=znak segno na kresce taktowej	!LO:TX:a:t=[segno]:problem=znak segno na kresce taktowej
=61||	=61||
*>P	*>P
*tremolo	*tremolo
!LO:TX:a:t=P:problem=w źródle nad każdym tremolo ósemkowym znajdują się trzy kreski\global	!LO:TX:a:t=P:problem=w źródle nad każdym tremolo ósemkowym znajdują się trzy kreski\global
!	!LO:TX:b:Bi:t=Coda acc&colon;
8C 8CC/L	8ccc 8gg 8ee\L
8C 8CC/	8ccc 8gg 8ee\
8C 8CC/J	8ccc 8gg 8ee\J
!	!LO:TX:a:t=P:problem=w źródle oznaczenie tremola ćwierćnuta bez kropki
8G#X 8GG/L	8ccc 8gg#X\L
8G# 8GG/	8ccc 8gg#X\
8G# 8GG/J	8ccc 8gg#X\J
=62	=62
8A 8AA/L	8ccc 8aa\L
8A 8AA/	8ccc 8aa\
8A 8AA/J	8ccc 8aa\J
!	!LO:TX:a:t=P:problem=w źródle oznaczenie tremola ćwierćnuta bez kropki
8E 8EE/L	8ccc 8ee\L
8E 8EE/	8ccc 8ee\
8E 8EE/J	8ccc 8ee\J
=63	=63
!	!LO:TX:a:t=P:problem=w źródle oznaczenie tremola ćwierćnuta bez kropki
8F 8FF/L	8ccc 8ff\L
8F 8FF/	8ccc 8ff\
8F 8FF/J	8ccc 8ff\J
!	!LO:TX:a:t=P:problem=w źródle oznaczenie tremola ćwierćnuta bez kropki
8G 8GG/L	8bb 8ff 8dd\L
8G 8GG/	8bb 8ff 8dd\
8G 8GG/J	8bb 8ff 8dd\J
*Xtremolo	*
=64	=64
!	!LO:TX:a:t=P:problem=w źródle oznaczenie tremola ćwierćnuta bez kropki
!LO:TX:t=P:problem=mixed beam	!
16C/LL	8ccc 8ee\L
16c\JJ	.
*rep	*
!LO:TX:t=P:problem=mixed beam	!
16C/LL	8ccc 8ee\
16c\JJ	.
*Xrep	*
*rep	*
!LO:TX:t=P:problem=mixed beam	!
16C/LL	8ccc 8ee\J
16c\JJ	.
*Xrep	*
!	!LO:TX:a:t=P:problem=w źródle oznaczenie tremola ćwierćnuta bez kropki
!LO:TX:t=P:problem=mixed beam	!
16GG/LL	8ccc 8gg#X\L
16G#X\JJ	.
!LO:TX:t=P:problem=mixed beam	!
16EE/LL	8ccc 8gg#X\
16E\JJ	.
*rep	*
!LO:TX:t=P:problem=mixed beam	!
16EE/LL	8ccc 8gg#X\J
16E\JJ	.
*Xrep	*
=65	=65
!LO:TX:t=P:problem=mixed beam	!
16GG/LL	8ccc 8aa\L
16G\JJ	.
*rep	*
!LO:TX:t=P:problem=mixed beam	!
16GG/LL	8ccc 8aa\
16G\JJ	.
!LO:TX:t=P:problem=mixed beam	!
16GG/LL	8ccc 8aa\J
16G\JJ	.
*Xrep	*
!LO:TX:t=P:problem=mixed beam	!
!	!LO:TX:a:t=P:problem=w źródle oznaczenie tremola ćwierćnuta bez kropki
16EE/LL	8ccc 8ee\L
16E\JJ	.
*rep	*
!LO:TX:t=P:problem=mixed beam	!
16EE/LL	8ccc 8ee\
16E\JJ	.
!LO:TX:t=P:problem=mixed beam	!
16EE/LL	8ccc 8ee\J
16E\JJ	.
*Xrep	*
!!LO:LB:g=original
=66	=66
!	!LO:TX:a:t=P:problem=w źródle oznaczenie tremola ćwierćnuta bez kropki
!LO:TX:t=P:problem=mixed beam	!
16FF/LL	8ccc 8aa 8ff\L
16F\JJ	.
*rep	*
!LO:TX:t=P:problem=mixed beam	!
16FF/LL	8ccc 8aa 8ff\
16F\JJ	.
*Xrep	*
*rep	*
!LO:TX:t=P:problem=mixed beam	!
16FF/LL	8ccc 8aa 8ff\J
16F\JJ	.
*Xrep	*
!LO:TX:t=P:problem=mixed beam	!
!	!LO:TX:a:t=P:problem=w źródle oznaczenie tremola ćwierćnuta bez kropki
16GG/LL	8bb 8ff 8dd\L
16G\JJ	.
*rep	*
!LO:TX:t=P:problem=mixed beam	!
16GG/LL	8bb 8ff 8dd\
16G\JJ	.
*Xrep	*
*rep	*
!LO:TX:t=P:problem=mixed beam	!
16GG/LL	8bb 8ff 8dd\J
16G\JJ	.
*Xrep	*
*	*Xtremolo
=67	=67
16c\LL	4ccc 4ee\
16B\	.
16c\	.
16G\	.
16E\	8ccc 8ee\
16C\JJ	.
16G\LL	4bb 4dd\
16F#X\	.
16G\	.
16D\	.
16BB\	8bb 8dd\
16GG\JJ	.
=68	=68
*rep	*rep
16c\LL	4ccc 4ee\
16B\	.
16c\	.
16G\	.
16E\	8ccc 8ee\
16C\JJ	.
16G\LL	4bb 4dd\
16F#X\	.
16G\	.
16D\	.
16BB\	8bb 8dd\
16GG\JJ	.
*Xrep	*Xrep
=69	=69
8C/L	8cccL 8ee\
8GG/	8ccc 8ee\
8EE/J	8cccJ 8ee\
4CC/	4ccc 4ee\
8r	8r
==:|!	==:|!
*-	*-
!!title: @{OTL};
!!!RDF**kern: > = above
!!!RDF**kern: < = below
!!!EED: Wojciech Jakubiak-Danek
!!!EST: 2020-12-10
!!!URL-scan: http://bc.bdsandomierz.pl/dlibra/publication/1379/edition/1347/content
!!!ONB-nifc: Str. 10 – str. 12 (s. 2)
!!!ENC: Mateusz Solarz
!!!END: 2020-06-19
